dist/svg/data-storage.svg

<svg width="16" height="16" viewBox="0 0 16 16" fill="rgb(34, 34, 34)" xmlns="http://www.w3.org/2000/svg"><title>data-storage</title><path d="M14.999 2.496C14.993 0.18 9.64102 0 7.99902 0C6.35702 0 1.00602 0.18 0.999023 2.496L2.00002 13.5C2.00002 15.82 6.35702 16 7.99902 16C9.64102 16 13.991 15.82 13.997 13.503H13.998L14.999 2.496ZM8.00002 1C11.314 1 14 1.672 14 2.5C14 3.328 11.314 4 8.00002 4C4.68602 4 2.00002 3.328 2.00002 2.5C2.00002 1.672 4.68602 1 8.00002 1ZM12.999 13.5C12.999 14.328 11.313 15 7.99902 15C4.68502 15 3.00002 14.328 3.00002 13.5L1.99902 3.945C3.62802 4.9 6.80002 5 7.99902 5C9.19802 5 12.371 4.9 14 3.945L12.999 13.5ZM6.00102 9C4.89802 9 4.00102 9.897 4.00102 11C4.00102 12.103 4.89802 13 6.00102 13C7.10402 13 8.00102 12.103 8.00102 11C8.00102 9.897 7.10402 9 6.00102 9ZM6.00102 12C5.44902 12 5.00102 11.552 5.00102 11C5.00102 10.448 5.44902 10 6.00102 10C6.55302 10 7.00102 10.448 7.00102 11C7.00102 11.552 6.55302 12 6.00102 12ZM10.001 10C11.104 10 12.001 9.103 12.001 8C12.001 6.897 11.104 6 10.001 6C8.89802 6 8.00102 6.897 8.00102 8C8.00102 9.103 8.89802 10 10.001 10ZM10.001 7C10.553 7 11.001 7.448 11.001 8C11.001 8.552 10.553 9 10.001 9C9.44902 9 9.00102 8.552 9.00102 8C9.00102 7.448 9.44902 7 10.001 7Z" fill="rgb(34, 34, 34)" fill-opacity="1.00"/></svg>

<!-- Generated by Trend Micro Style Portal -->
<svg version="1.1" xmlns="http://www.w3.org/2000/svg" width="16" height="16" viewBox="0 0 16 16">
  <title>data-storage</title>
  <path fill="rgb(34,34,34)" d="M14.999 2.496c-0.006-2.316-5.358-2.496-7-2.496s-6.993 0.18-7 2.496h-0l1.001 11.004c0 2.32 4.357 2.5 5.999 2.5s5.992-0.18 5.998-2.497h0.001l1.001-11.007h-0.001zM8 1c3.314 0 6 0.672 6 1.5s-2.686 1.5-6 1.5-6-0.672-6-1.5 2.686-1.5 6-1.5zM12.999 13.5h-0.001c0 0.828-1.685 1.5-4.999 1.5s-4.999-0.672-4.999-1.5l-1.001-9.555c1.629 0.955 4.801 1.055 6 1.055s4.372-0.1 6.001-1.055l-1.001 9.555zM6.001 9c-1.103 0-2 0.897-2 2s0.897 2 2 2 2-0.897 2-2-0.897-2-2-2zM6.001 12c-0.552 0-1-0.448-1-1s0.448-1 1-1 1 0.448 1 1-0.448 1-1 1zM10.001 10c1.103 0 2-0.897 2-2s-0.897-2-2-2-2 0.897-2 2 0.897 2 2 2zM10.001 7c0.552 0 1 0.448 1 1s-0.448 1-1 1-1-0.448-1-1 0.448-1 1-1z"></path>
</svg>
